img/about/icon1.svg

<svg width="50" height="50" viewBox="0 0 50 50" fill="none" xmlns="http://www.w3.org/2000/svg">
<path d="M49.7698 8.99479L43.5104 6.48958L41.0063 0.229166L37.7292 3.50521C33.876 1.21875 29.4979 0 25 0C11.2156 0 0 11.2156 0 25C0 38.7844 11.2156 50 25 50C38.7844 50 50 38.7844 50 25C50 20.5021 48.7812 16.124 46.4948 12.2708L49.7698 8.99479ZM41.9062 8.09375L46.0625 9.75625L43.4979 12.3198L39.3438 10.6562L37.6812 6.50104L40.2448 3.93646L41.9062 8.09375ZM47.9167 25C47.9167 37.6365 37.6365 47.9167 25 47.9167C12.3635 47.9167 2.08333 37.6365 2.08333 25C2.08333 12.3635 12.3635 2.08333 25 2.08333C28.9458 2.08333 32.7969 3.09479 36.2156 5.01875L35.2354 5.99896L37.3187 11.2083L36.0073 12.5198C33.0687 9.92292 29.2208 8.33333 25 8.33333C15.8104 8.33333 8.33333 15.8104 8.33333 25C8.33333 34.1896 15.8104 41.6667 25 41.6667C34.1896 41.6667 41.6667 34.1896 41.6667 25C41.6667 20.7792 40.0771 16.9312 37.4813 13.9917L38.7927 12.6802L44.0021 14.7635L44.9823 13.7833C46.9052 17.2031 47.9167 21.0542 47.9167 25ZM31.25 25C31.25 28.4469 28.4469 31.25 25 31.25C21.5531 31.25 18.75 28.4469 18.75 25C18.75 21.5531 21.5531 18.75 25 18.75C26.3479 18.75 27.5937 19.1833 28.6156 19.9115L25.5333 22.9937C25.3615 22.949 25.1854 22.9167 25 22.9167C23.85 22.9167 22.9167 23.849 22.9167 25C22.9167 26.151 23.85 27.0833 25 27.0833C26.15 27.0833 27.0833 26.151 27.0833 25C27.0833 24.8146 27.051 24.6385 27.0063 24.4667L30.0885 21.3844C30.8167 22.4062 31.25 23.6521 31.25 25ZM30.1021 18.425C28.6896 17.3271 26.9229 16.6667 25 16.6667C20.4052 16.6667 16.6667 20.4052 16.6667 25C16.6667 29.5948 20.4052 33.3333 25 33.3333C29.5948 33.3333 33.3333 29.5948 33.3333 25C33.3333 23.0771 32.6729 21.3104 31.575 19.8979L36.0094 15.4635C38.2292 18.024 39.5833 21.3531 39.5833 25C39.5833 33.0417 33.0417 39.5833 25 39.5833C16.9583 39.5833 10.4167 33.0417 10.4167 25C10.4167 16.9583 16.9583 10.4167 25 10.4167C28.6458 10.4167 31.976 11.7708 34.5354 13.9917L30.1021 18.425Z" fill="#0083C1"/>
</svg>

<svg width="50" height="50" fill="none" xmlns="http://www.w3.org/2000/svg"><path d="M49.77 8.995L43.51 6.49 41.006.23 37.73 3.504A24.905 24.905 0 0025 0C11.216 0 0 11.216 0 25s11.216 25 25 25 25-11.216 25-25c0-4.498-1.219-8.876-3.505-12.73l3.275-3.275zm-7.864-.901l4.157 1.662-2.565 2.564-4.154-1.664-1.663-4.155 2.564-2.565 1.661 4.158zM47.916 25c0 12.636-10.28 22.917-22.916 22.917-12.636 0-22.917-10.28-22.917-22.917C2.083 12.364 12.363 2.083 25 2.083c3.946 0 7.797 1.012 11.216 2.936l-.98.98 2.083 5.21-1.312 1.31C33.07 9.924 29.221 8.334 25 8.334 15.81 8.333 8.333 15.81 8.333 25c0 9.19 7.477 16.667 16.667 16.667 9.19 0 16.667-7.477 16.667-16.667 0-4.22-1.59-8.069-4.186-11.008l1.312-1.312 5.21 2.084.98-.98A22.852 22.852 0 0147.916 25zM31.25 25A6.256 6.256 0 0125 31.25 6.256 6.256 0 0118.75 25 6.256 6.256 0 0125 18.75c1.348 0 2.594.433 3.616 1.162l-3.083 3.082a2.104 2.104 0 00-.533-.077A2.083 2.083 0 1027.083 25c0-.185-.032-.361-.077-.533l3.082-3.083A6.209 6.209 0 0131.25 25zm-1.148-6.575A8.284 8.284 0 0025 16.667c-4.595 0-8.333 3.738-8.333 8.333 0 4.595 3.738 8.333 8.333 8.333 4.595 0 8.333-3.738 8.333-8.333 0-1.923-.66-3.69-1.758-5.102l4.434-4.434A14.51 14.51 0 0139.583 25c0 8.042-6.541 14.583-14.583 14.583S10.417 33.042 10.417 25 16.958 10.417 25 10.417c3.646 0 6.976 1.354 9.535 3.575l-4.433 4.433z" fill="#0083C1"/></svg>
